X:235
T:The Penny-
R:clog
C:Bruce Osborne - Sept. 2002
Z:abc by bosborne@kos.net
M:2/4
L:1/8
K:A
c/B/|A>E A>c|e>c e>a|f>d f>a|e3 B/c/|\
d>B G>B|E>G B>G|A>E A>B|c3 c/B/|\
A>E A>c|e>c e>a|f>d f>a|e3 B/c/|\
d>B G>B|E>G B>d|c>A B>G|A3||\
c/d/|e>a g>a|f>a e>d|c>A E>A|c3 B/c/|\
d>B G>B|E>G B>d|c>A E>A|c3 c/d/|\
e>a g>a|f>a e>d|c>A E>A|c3 B/c/|\
d>B G>B|E>G B>d|c>A B>G|A3||
